app/dist/common/images/franks-international.svg

<svg height="18" width="18" xmlns="http://www.w3.org/2000/svg"><path d="m0 0h18v18h-18z" fill="#056c5b"/><path d="m5.001 10v-5h6v1h-5.001v1h5v1h-5v2h-1zm7.999-5h-1v5h1z" fill="#fff"/><path d="m13 12h-8v.5h8zm-.001-1h-7.999v.5h7.999zm.001 2h-8v1h8z" fill="#a9a089"/></svg>

<!-- by TradingView --><svg width="18" height="18" xmlns="http://www.w3.org/2000/svg"><path fill="#056C5B" d="M0 0h18v18H0z"/><path d="M5.001 10V5h6v1H6v1H11v1H6v2H5zM13 5h-1v5h1V5z" fill="#fff"/><path d="M13 12H5v.5H13V12zM12.999 11H5v.5h7.999V11zM13 13H5v1H13v-1z" fill="#A9A089"/></svg>
